assets/images/img_frame19044.svg

<svg width="24" height="24" viewBox="0 0 24 24" fill="none" xmlns="http://www.w3.org/2000/svg">
<path d="M19.2921 7.23L19.3018 7.22L15.6945 3.5L14.6667 4.56L16.7127 6.67C15.8012 7.03 15.1515 7.93 15.1515 9C15.1515 10.38 16.2376 11.5 17.5758 11.5C17.9248 11.5 18.2448 11.42 18.5455 11.29V18.5C18.5455 19.05 18.1091 19.5 17.5758 19.5C17.0424 19.5 16.6061 19.05 16.6061 18.5V14C16.6061 12.9 15.7333 12 14.6667 12H13.697V5C13.697 3.9 12.8242 3 11.7576 3H5.93939C4.87273 3 4 3.9 4 5V21H13.697V13.5H15.1515V18.5C15.1515 19.88 16.2376 21 17.5758 21C18.9139 21 20 19.88 20 18.5V9C20 8.31 19.7285 7.68 19.2921 7.23ZM11.7576 10H5.93939V5H11.7576V10ZM17.5758 10C17.0424 10 16.6061 9.55 16.6061 9C16.6061 8.45 17.0424 8 17.5758 8C18.1091 8 18.5455 8.45 18.5455 9C18.5455 9.55 18.1091 10 17.5758 10Z" fill="#91969D"/>
<path fill-rule="evenodd" clip-rule="evenodd" d="M20 17H18.5455V18.5C18.5455 19.05 18.1091 19.5 17.5758 19.5C17.0424 19.5 16.6061 19.05 16.6061 18.5V17H15.1515V18.5C15.1515 19.88 16.2376 21 17.5758 21C18.9139 21 20 19.88 20 18.5V17ZM13.697 21V17H4V21H13.697Z" fill="#FFE142"/>
</svg>

<svg xmlns="http://www.w3.org/2000/svg" width="24" height="24" fill="none" viewBox="0 0 24 24"><path fill="#91969D" d="m19.292 7.23.01-.01-3.607-3.72-1.028 1.06 2.046 2.11A2.49 2.49 0 0 0 15.15 9c0 1.38 1.087 2.5 2.425 2.5.349 0 .669-.08.97-.21v7.21c0 .55-.437 1-.97 1-.534 0-.97-.45-.97-1V14c0-1.1-.873-2-1.94-2h-.969V5c0-1.1-.873-2-1.94-2H5.94C4.873 3 4 3.9 4 5v16h9.697v-7.5h1.455v5c0 1.38 1.086 2.5 2.424 2.5C18.914 21 20 19.88 20 18.5V9c0-.69-.271-1.32-.708-1.77ZM11.758 10H5.939V5h5.819v5Zm5.818 0c-.534 0-.97-.45-.97-1s.436-1 .97-1c.533 0 .97.45.97 1s-.437 1-.97 1Z"/><path fill="#FFE142" fill-rule="evenodd" d="M20 17h-1.454v1.5c0 .55-.437 1-.97 1-.534 0-.97-.45-.97-1V17h-1.455v1.5c0 1.38 1.087 2.5 2.425 2.5C18.914 21 20 19.88 20 18.5V17Zm-6.303 4v-4H4v4h9.697Z" clip-rule="evenodd"/></svg>
